src/assets/img/icons/solid/lamp.svg

<svg xmlns="http://www.w3.org/2000/svg" viewBox="0 0 256 256"><path class="fill-secondary" d="M128 36.86a8 8 0 01-8-8V8a8 8 0 0116 0v20.86a8 8 0 01-8 8zm70.1 29.04a8 8 0 01-5.67-13.64l14.77-14.77a8 8 0 1111.31 11.31l-14.77 14.77a8 8 0 01-5.64 2.33zM248 136h-20.86a8 8 0 010-16H248a8 8 0 010 16zm-35.15 84.85a8.06 8.06 0 01-5.67-2.34l-14.76-14.77a8 8 0 0111.31-11.31l14.77 14.77a8 8 0 010 11.31 7.92 7.92 0 01-5.65 2.34zm-169.7 0a8 8 0 01-5.66-13.65l14.77-14.77a8 8 0 0111.31 11.31L48.8 218.51a7.93 7.93 0 01-5.65 2.34zM28.86 136H8a8 8 0 010-16h20.86a8 8 0 110 16zM57.9 65.9a8 8 0 01-5.66-2.33L37.47 48.8a8 8 0 1111.31-11.31l14.77 14.77A8 8 0 0157.9 65.9z"/><path class="fill-primary" d="M160 224v13.33A18.76 18.76 0 01141.33 256h-26.67c-9 0-18.66-6.83-18.66-21.76V224zm15-154a74.93 74.93 0 00-63-15c-28.27 5.91-51.2 29-57.07 57.21a74.74 74.74 0 0028.16 75.41A32.19 32.19 0 0195.25 208v.12A2 2 0 0196 208h64a.93.93 0 01.53.11V208c1.49-8.11 6.29-15.57 13.65-21.33A74.72 74.72 0 00175 70zm-7 63.36a8.06 8.06 0 01-8-8A29.32 29.32 0 00130.67 96a8 8 0 110-16A45.43 45.43 0 01176 125.33a8.06 8.06 0 01-8 8z"/><path class="fill-secondary" d="M95.25 208H96a1.8 1.8 0 00-.75.11z"/><path class="fill-primary" d="M160.53 208v.11a.93.93 0 00-.53-.11z"/></svg>

<svg xmlns="http://www.w3.org/2000/svg" viewBox="0 0 256 256"><g><g><path class="fill-secondary" d="M128,36.86a8,8,0,0,1-8-8V8a8,8,0,0,1,16,0V28.86A8,8,0,0,1,128,36.86Z"/><path class="fill-secondary" d="M198.1,65.9a8,8,0,0,1-5.67-13.64L207.2,37.49A8,8,0,1,1,218.51,48.8L203.74,63.57A8,8,0,0,1,198.1,65.9Z"/><path class="fill-secondary" d="M248,136H227.14a8,8,0,0,1,0-16H248a8,8,0,0,1,0,16Z"/><path class="fill-secondary" d="M212.85,220.85a8.06,8.06,0,0,1-5.67-2.34l-14.76-14.77a8,8,0,0,1,11.31-11.31L218.5,207.2a8,8,0,0,1,0,11.31A7.92,7.92,0,0,1,212.85,220.85Z"/><path class="fill-secondary" d="M43.15,220.85a8,8,0,0,1-5.66-13.65l14.77-14.77a8,8,0,0,1,11.31,11.31L48.8,218.51A7.93,7.93,0,0,1,43.15,220.85Z"/><path class="fill-secondary" d="M28.86,136H8a8,8,0,0,1,0-16H28.86a8,8,0,1,1,0,16Z"/><path class="fill-secondary" d="M57.9,65.9a8,8,0,0,1-5.66-2.33L37.47,48.8A8,8,0,1,1,48.78,37.49L63.55,52.26A8,8,0,0,1,57.9,65.9Z"/><path class="fill-primary" d="M160,224v13.33A18.76,18.76,0,0,1,141.33,256H114.66c-9,0-18.66-6.83-18.66-21.76V224Z"/><path class="fill-primary" d="M175,70A74.93,74.93,0,0,0,112,55C83.73,60.91,60.8,84,54.93,112.21a74.74,74.74,0,0,0,28.16,75.41A32.19,32.19,0,0,1,95.25,208v.12A2,2,0,0,1,96,208h64a.93.93,0,0,1,.53.11V208c1.49-8.11,6.29-15.57,13.65-21.33A74.72,74.72,0,0,0,175,70Zm-7,63.36a8.06,8.06,0,0,1-8-8A29.32,29.32,0,0,0,130.67,96a8,8,0,1,1,0-16A45.43,45.43,0,0,1,176,125.33,8.06,8.06,0,0,1,168,133.33Z"/><path class="fill-secondary" d="M95.25,208H96a1.8,1.8,0,0,0-.75.11Z"/><path class="fill-primary" d="M160.53,208v.11A.93.93,0,0,0,160,208Z"/></g></g></svg>
